X: 12345
T: Fallen Giant
R: jig
M: 6/8
K: Bminor
FBc d z F|G2 d z dc|ec~A- A2 d|eBd e f2-|
fBc d2 F|Gdd d/d/dc|ec~A- A2 F|1 B3 -BAG:|2 B3-B z2||
Bdf z ed|Bdf ~e2 d|Gdf z ed|Gdf ~e2 d|
Acd dcB|AB/c/d d2 f|edB edB|1 B3 -BAF:|2 B3 -BAG||

